X:1
T:Darkness fell on the weary earth - Barnby
T:#
%%score [ ( 1 2 ) ( 3 4 ) ]
L:1/8
Q:1/4=120
M:6/8
K:Bb
V:1 treble nm="SA"
V:2 treble 
V:3 bass nm="TB"
V:4 bass 
V:1
"^W. Chatterton Dix\n(1837-1898)""^Darkness fell on the weary earth" G2 G FED | E2 B, D3 | %2
 D2 D G2 B | A3 D2 z | G2 G FE"^Joseph Barnby\n(1838-96)"D | E2 B, D3 | D2 D ^F2 =E | =E3 D2 z | %8
 ddd e2 d | c2 B c2 D | B2 B c2 B | A2 G ^F3 | G2 G GGG | G2 A A3 | AAA A2 A |[K:G] F2 B, B,3 | %16
[M:2/2] D2 E2 G4 | G2 A2 c2 B2 | A2 G2 A2 B2 | A2 E2 F4 | G4 e4 | (d6 c2) | (B2 G2) A4 | G8 || %24
[K:Bb][M:6/8] G2 G FED | E2 B, D3 | D2 D G2 B | A3 D2 z | G2 G FED | E2 B, D3 | D2 D ^F2 =E | %31
 =E3 D2 z | ddd e2 d | c2 B c2 D | B2 B c2 B | A2 G ^F3 | GGG G2 G | G2 A A3 | AAA A2 A | %39
[K:G] F2 B, B,3 |[M:2/2] D2 E2 G4 | G2 A2 c2 B2 | A2 G2 A2 B2 | A2 E2 F4 | G4 e4 | (d6 c2) | %46
 (B2 G2) A4 | G8 ||[K:Bb][M:6/8] G2 G FED | E2 B, D3 | D2 D G2 B | A3 D2 z | G2 G FED | E2 B, D3 | %54
 D2 D ^F2 =E | =E3 D2 z | ddd e2 d | c2 B c2 D | B2 B c2 B | A2 G ^F3 | G2 G G2 G | G2 A A3 | %62
 AAA A2 A |[K:G] F2 B, B,3 |[M:2/2] D2 E2 G4 | G2 A2 c2 B2 | A2 G2 A2 B2 | A2 E2 F4 | G4 e4 | %69
 (d6 c2) | (B2 G2) A4 | G8 |] %72
V:2
 G2 G FED | E2 B, D3 | D2 D D2 D | ^C3 D2 z | G2 G FED | E2 B, D3 | D2 D [^C^F]2 C | [^C=E]3 D2 z | %8
w: Dark- ness fell on the|wea- ry earth,|Gloom the na- tions|shroud- ed;|Watch- ers longed for the|wond- rous birth,|Hope with fear was|cloud- ed;|
 =FFF G2 F | F2 D F2 D | D2 D E2 D | ^C2 C D3 | D=B,C DCD | E2 E E3 | =E^CD EDE |[K:G] B,2 B, B,3 | %16
w: Sud- den- ly burst the|Light of Light! O|fair- est Star that|gem'd the height,|Lead­ * ing on to where|Je- sus lay,|Mar- vel- lous Child, * the|Spring of Day!|
[M:2/2] D2 C2 D4 | E2 F2 G2 G2 | F2 E2 F2 G2 | E2 E2 D4 | D4 E4 | (F4 G2 A2) | G4 F4 | G8 || %24
w: An- gels sing,|we with them Do|greet Thee, Babe of|Beth- le- hem,|Hail! all|hail! * *|Hail! all|hail.|
[K:Bb][M:6/8] G2 G FED | E2 B, D3 | D2 D D2 D | ^C3 D2 z | G2 G FED | E2 B, D3 | D2 D [^C^F]2 C | %31
w: Sor- row fills the hearts|that would hold|Him the Wise Men|sought for;|Is- rael's Love * is|faint and cold,|Love He sighed and|
 [^C=E]3 D2 z | =FFF G2 F | F2 D F2 D | D2 D E2 D | ^C2 C D3 | D=B,C DCD | E2 E E3 | =E^CD EDE | %39
w: wrought for;|Might- i- ly aid us|on our road, Pure|source of Light, to|Light's a- bode,|Pa- lace of Peace, * where,|un- de- filed,|Beau- ti- ful Ma­ * ry|
[K:G] B,2 B, B,3 |[M:2/2] D2 C2 D4 | E2 F2 G2 G2 | F2 E2 F2 G2 | E2 E2 D4 | D4 E4 | (F4 G2 A2) | %46
w: soothes her Child.|An- gels sing,|we with them Do|greet Thee, Babe of|Beth- le- hem,|Hail! all|hail! * *|
 G4 F4 | G8 ||[K:Bb][M:6/8] G2 G FED | E2 B, D3 | D2 D D2 D | ^C3 D2 z | G2 G FED | E2 B, D3 | %54
w: Hail! all|hail.|Trea- sures poor are those|that we bring,|Yet, kind Child, re-|ceive them,|Kneel- ing low, be- cause|Thou art King,|
 D2 D [^C^F]2 C | [^C=E]3 D2 z | =FFF G2 F | F2 D F2 D | D2 D E2 D | ^C2 C D3 | D=B,C D CD | %61
w: At Thy feet we|leave them.|Glit- ter- ing crowns Thou|hast in store For|all who meek- ly|Thee a- dore;|Bount- i- ful Lord, * oh|
 E2 E E3 | =E^CD EDE |[K:G] B,2 B, B,3 |[M:2/2] D2 C2 D4 | E2 F2 G2 G2 | F2 E2 F2 G2 | E2 E2 D4 | %68
w: give me one,|Earth's wear- y jour­ * ney|past and done.|An- gels sing,|we with them Would|cry in dear Je-|ru- sa- lem,|
 D4 E4 | (F4 G2 A2) | G4 F4 | G8 |] %72
w: Hail! all|hail! * *|Hail! all|hail.|
V:3
 G,2 G, F,E,D, | E,2 B,, D,3 | ^F,2 F, G,2 G, | =E,3 ^F,2 z | G,2 G, F,E,D, | E,2 B,, D,3 | %6
 G,2 B, A,2 G, | G,3 ^F,2 z | B,B,B, B,2 B, | A,2 B, A,2 A, | G,2 G, G,2 G, | A,2 A, A,3 | %12
 G,2 G, G,G,G, | G,2 G, A,3 | A,A,A, A,2 G, |[K:G] ^D,2 E, F,3 |[M:2/2] B,2 C2 B,4 | B,2 D2 E2 D2 | %18
 D2 B,2 D2 D2 | ^C2 A,2 A,4 | G,4 C4 | (A,2 D6) | D4 C4 | B,8 ||[K:Bb][M:6/8] G,2 G, F,E,D, | %25
 E,2 B,, D,3 | ^F,2 F, G,2 G, | =E,3 ^F,2 z | G,2 G, F,E,D, | E,2 B,, D,3 | G,2 B, A,2 G, | %31
 G,3 ^F,2 z | B,B,B, B,2 B, | A,2 B, A,2 A, | G,2 G, G,2 G, | A,2 A, A,3 | G,G,G, G,2 G, | %37
 G,2 G, A,3 | A,A,A, A,2 G, |[K:G] ^D,2 E, F,3 |[M:2/2] B,2 C2 B,4 | B,2 D2 E2 D2 | D2 B,2 D2 D2 | %43
 ^C2 A,2 A,4 | G,4 C4 | (A,2 D6) | D4 C4 | B,8 ||[K:Bb][M:6/8] G,2 G, F,E,D, | E,2 B,, D,3 | %50
 ^F,2 F, G,2 G, | =E,3 ^F,2 z | G,2 G, F,E,D, | E,2 B,, D,3 | G,2 B, A,2 G, | G,3 ^F,2 z | %56
 B,B,B, B,2 B, | A,2 B, A,2 A, | G,2 G, G,2 G, | A,2 A, A,3 | G,2 G, G, G,2 | G,2 G, A,3 | %62
 A,A,A, A,2 G, |[K:G] ^D,2 E, F,3 |[M:2/2] B,2 C2 B,4 | B,2 D2 E2 D2 | D2 B,2 D2 D2 | ^C2 A,2 A,4 | %68
 G,4 C4 | (A,2 D6) | D4 C4 | B,8 |] %72
V:4
 G,2 G, F,E,D, | E,2 B,, D,3 | D,2 D, B,,2 G,, | A,,3 D,2 z | G,2 G, F,E,D, | E,2 B,, D,3 | %6
 B,,2 G,, A,,2 A,, | A,,3 D,2 z | B,B,B, E,2 B, | F,2 G, F,2 ^F, | G,2 G, C,2 G, | =E,2 A,, D,3 | %12
 =B,,G,,A,, B,,A,,B,, | C,2 C, C,3 | ^C,A,,=B,, C,B,,C, |[K:G] B,,2 ^C, ^D,3 |[M:2/2] G,2 C,2 G,4 | %17
 E,2 D,2 C,2 G,2 | D,2 E,2 D,2 G,,2 | A,,2 ^C,2 (D,2 =C,2) | B,,4 C,4 | (D,4 E,2 F,2) | %22
 (G,2 B,2) D,4 | G,,8 ||[K:Bb][M:6/8] G,2 G, F,E,D, | E,2 B,, D,3 | D,2 D, B,,2 G,, | A,,3 D,2 z | %28
 G,2 G, F,E,D, | E,2 B,, D,3 | B,,2 G,, A,,2 A,, | A,,3 D,2 z | B,B,B, E,2 B, | F,2 G, F,2 ^F, | %34
 G,2 G, C,2 G, | =E,2 A,, D,3 | =B,,G,,A,, B,,A,,B,, | C,2 C, C,3 | ^C,A,,=B,, C,B,,C, | %39
[K:G] B,,2 ^C, ^D,3 |[M:2/2] G,2 C,2 G,4 | E,2 D,2 C,2 G,2 | D,2 E,2 D,2 G,,2 | %43
 A,,2 ^C,2 (D,2 =C,2) | B,,4 C,4 | (D,4 E,2 F,2) | (G,2 B,2) D,4 | G,,8 || %48
[K:Bb][M:6/8] G,2 G, F,E,D, | E,2 B,, D,3 | D,2 D, B,,2 G,, | A,,3 D,2 z | G,2 G, F,E,D, | %53
 E,2 B,, D,3 | B,,2 G,, A,,2 A,, | A,,3 D,2 z | B,B,B, E,2 B, | F,2 G, F,2 ^F, | G,2 G, C,2 G, | %59
 =E,2 A,, D,3 | =B,,G,,A,, B,,A,,B,, | C,2 C, C,3 | ^C,A,,=B,, C,B,,C, |[K:G] B,,2 ^C, ^D,3 | %64
[M:2/2] G,2 C,2 G,4 | E,2 D,2 C,2 G,2 | D,2 E,2 D,2 G,,2 | A,,2 ^C,2 (D,2 =C,2) | B,,4 C,4 | %69
 (D,4 E,2 F,2) | (G,2 B,2) D,4 | G,,8 |] %72

